**kern	**silbe	**harmony	**chordsym	**phrase	**timestamp	**leadinstrument
*ICvox	*	*M4/4	*M4/4	*	*	*
*	*	*B-:	*B-:	*	*	*
=1	=1	=1	=1	=1	=1	=1
*B-:	*	*	*	*	*	*
*M4/4	*	*	*	*	*	*
*clefF4	*	*	*	*	*	*
1r	.	1r;	r	.	0	r
=2	=2	=2	=2	=2	=2	=2
1r	.	1r;	r	.	0.464	r
=3	=3	=3	=3	=3	=3	=3
1r	.	1FMm	F:7 (F A C E-)	.	.	r
=4	=4	=4	=4	=4	=4	=4
1r	.	1FMm	F:7 (F A C E-)	.	.	r
=5	=5	=5	=5	=5	=5	=5
4D	You've	1B-M	B-:maj (B- D F)	.	.	r
8D	cut	.	.	.	.	.
[8D	out	.	.	.	.	.
4D]	_	.	.	.	.	.
8C	your	.	.	.	.	.
[8C	dan	.	.	.	.	.
=6	=6	=6	=6	=6	=6	=6
8C]	_	1B-M	B-:maj (B- D F)	.	.	r
8BB-	cing,	.	.	.	.	.
4r	.	.	.	.	.	.
8r	.	.	.	.	.	.
[8D	and	.	.	.	.	.
8D]	_	.	.	.	.	.
8D	you	.	.	.	.	.
=7	=7	=7	=7	=7	=7	=7
*	*	*>A_verse	*>A_verse	*>A_verse	*>A_verse	*>A_verse
8E-	ne-	1B-M	B-:maj (B- D F)	newline	6.841	voice
[8E-	-ver	.	.	.	.	.
4E-]	_	.	.	.	.	.
8E-	see	.	.	.	.	.
[8D	a	.	.	.	.	.
8D]	_	.	.	.	.	.
[8C	show	.	.	.	.	.
=8	=8	=8	=8	=8	=8	=8
8C]	_	1B-M	B-:maj (B- D F)	.	.	voice
8r	.	.	.	.	.	.
4r	.	.	.	.	.	.
4r	.	.	.	.	.	.
8D	Your	.	.	.	.	.
[8E-	friends	.	.	.	.	.
=9	=9	=9	=9	=9	=9	=9
4E-]	_	1FMm	F:7 (F A C E-)	.	.	voice
4E-	come	.	.	.	.	.
4.E-	by	.	.	.	.	.
8D	to	.	.	.	.	.
=10	=10	=10	=10	=10	=10	=10
4D	pick	1FMm	F:7 (F A C E-)	.	.	voice
8C	you	.	.	.	.	.
[8C	up,	.	.	.	.	.
8C]	_	.	.	.	.	.
[8D	and	.	.	.	.	.
8D]	_	.	.	.	.	.
8E-	you	.	.	.	.	.
=11	=11	=11	=11	=11	=11	=11
[4F	hard	1FMm	F:7 (F A C E-)	newline	12.12	voice
8F]	_	.	.	.	.	.
8G	ly	.	.	.	.	.
8F	e-	.	.	.	.	.
[8E-	-ver	.	.	.	.	.
8E-]	_	.	.	.	.	.
[8D	go	.	.	.	.	.
=12	=12	=12	=12	=12	=12	=12
4D]	_	1FMm	F:7 (F A C E-)	.	.	voice
4r	.	.	.	.	.	.
4r	.	.	.	.	.	.
8F	It	.	.	.	.	.
[8G	seems	.	.	.	.	.
=13	=13	=13	=13	=13	=13	=13
4G]	_	1B-M	B-:maj (B- D F)	.	.	voice
4F#	your	.	.	.	.	.
4G	head	.	.	.	.	.
8A	is	.	.	.	.	.
[8B-	in	.	.	.	.	.
=14	=14	=14	=14	=14	=14	=14
4B-]	_	1B-M	B-:maj (B- D F)	.	.	voice
8B-	the	.	.	.	.	.
[8A	clouds	.	.	.	.	.
4A]	_	.	.	.	.	.
8G	a-	.	.	.	.	.
[8F	-bove	.	.	.	.	.
=15	=15	=15	=15	=15	=15	=15
2.F]	...	1E-M	E-:maj (E- G B-)	newline	17.345	voice
4r	.	.	.	.	.	.
=16	=16	=16	=16	=16	=16	=16
4r	.	1E-M	E-:maj (E- G B-)	.	.	voice
4AA	you've	.	.	.	.	.
4BB-	got	.	.	.	.	.
8C	the	.	.	.	.	.
[8D	ways	.	.	.	.	.
=17	=17	=17	=17	=17	=17	=17
2.D_	_	1B-M	B-:maj (B- D F)	.	.	voice
8D]	_	.	.	.	.	.
8r	.	.	.	.	.	.
=16	=16	=16	=16	=16	=16	=16
4r	.	1B-M	B-:maj (B- D F)	.	.	voice
4BB-	(you've	.	.	.	.	.
4AA	got	.	.	.	.	.
4GG	the	.	.	.	.	.
=18	=18	=18	=18	=18	=18	=18
4r	.	1B-M	B-:maj (B- D F)	newline	22.627	voice
8FF	of	.	.	.	.	.
8FF	a	.	.	.	.	.
8AA	wo-	.	.	.	.	.
8AA	-man	.	.	.	.	.
4C	in	.	.	.	.	.
=18	=18	=18	=18	=18	=18	=18
2FF	ways)	1FMm	F:7 (F A C E-)	.	.	voice
=19	=19	=19	=19	=19	=19	=19
2BB-	love.	.	.	.	.	.
=19	=19	=19	=19	=19	=19	=19
2BB-	(In	1B-M	B-:maj (B- D F)	.	.	voice
=20	=20	=20	=20	=20	=20	=20
2BB-	love...)	.	.	.	.	.
=20	=20	=20	=20	=20	=20	=20
2r	.	1B-M	B-:maj (B- D F)	.	.	voice
=21	=21	=21	=21	=21	=21	=21
8D	I	.	.	.	.	.
[8D	walked	.	.	.	.	.
4D]	_	.	.	.	.	.
=21	=21	=21	=21	=21	=21	=21
*	*	*>A_verse	*>A_verse	*>A_verse	*>A_verse	*>A_verse
4D	by	1B-M	B-:maj (B- D F)	newline	27.938	voice
8C	your	.	.	.	.	.
[8C	house	.	.	.	.	.
=22	=22	=22	=22	=22	=22	=22
4C]	_	.	.	.	.	.
8BB-	to-	.	.	.	.	.
[8BB-	-night	.	.	.	.	.
=22	=22	=22	=22	=22	=22	=22
8BB-]	_	1B-M	B-:maj (B- D F)	.	.	voice
4.D	and	.	.	.	.	.
=23	=23	=23	=23	=23	=23	=23
4E-	hoped	.	.	.	.	.
8E-	that	.	.	.	.	.
[8E-	I	.	.	.	.	.
=23	=23	=23	=23	=23	=23	=23
4E-]	_	1FMm	F:7 (F A C E-)	.	.	voice
8D	might	.	.	.	.	.
[8C	see	.	.	.	.	.
=24	=24	=24	=24	=24	=24	=24
4C]	...	.	.	.	.	.
4r	.	.	.	.	.	.
=24	=24	=24	=24	=24	=24	=24
4r	.	1FMm	F:7 (F A C E-)	.	.	voice
8D	the	.	.	.	.	.
[8E-	guy	.	.	.	.	.
=25	=25	=25	=25	=25	=25	=25
4E-]	_	.	.	.	.	.
4E-	who's	.	.	.	.	.
=25	=25	=25	=25	=25	=25	=25
8E-	got	1FMm	F:7 (F A C E-)	newline	33.25	voice
[8D	you	.	.	.	.	.
8D]	_	.	.	.	.	.
[8D	in	.	.	.	.	.
=26	=26	=26	=26	=26	=26	=26
4D]	_	.	.	.	.	.
4C	a	.	.	.	.	.
=26	=26	=26	=26	=26	=26	=26
4C	spin,	1FMm	F:7 (F A C E-)	.	.	voice
8E-	I	.	.	.	.	.
[8F	wish	.	.	.	.	.
=27	=27	=27	=27	=27	=27	=27
4F]	_	.	.	.	.	.
4F	that	.	.	.	.	.
=27	=27	=27	=27	=27	=27	=27
4F	guy	1B-M	B-:maj (B- D F)	.	.	voice
4E-	was	.	.	.	.	.
=28	=28	=28	=28	=28	=28	=28
4D	me!	.	.	.	.	.
4r	.	.	.	.	.	.
=28	=28	=28	=28	=28	=28	=28
4r	.	1B-M	B-:maj (B- D F)	.	.	voice
8F	I	.	.	.	.	.
[8G	don't	.	.	.	.	.
=29	=29	=29	=29	=29	=29	=29
4G]	_	.	.	.	.	.
4G	know	.	.	.	.	.
=29	=29	=29	=29	=29	=29	=29
4G	why	1E-M	E-:maj (E- G B-)	newline	38.523	voice
8G	it's	.	.	.	.	.
[8G	you	.	.	.	.	.
=30	=30	=30	=30	=30	=30	=30
8G]	_	.	.	.	.	.
[8G	I'm	.	.	.	.	.
4G]	_	.	.	.	.	.
=30	=30	=30	=30	=30	=30	=30
4F	drea-	1E-M	E-:maj (E- G B-)	.	.	voice
8E-	-ming	.	.	.	.	.
[8F	of	.	.	.	.	.
=31	=31	=31	=31	=31	=31	=31
2.F]	...	.	.	.	.	.
=31	=31	=31	=31	=31	=31	=31
.	.	1B-M	B-:maj (B- D F)	.	.	voice
4r	.	.	.	.	.	.
=32	=32	=32	=32	=32	=32	=32
4r	.	.	.	.	.	.
4AA	you've	.	.	.	.	.
=32	=32	=32	=32	=32	=32	=32
4BB-	got	1B-M	B-:maj (B- D F)	.	.	voice
8C	the	.	.	.	.	.
8D	ways	.	.	.	.	.
=33	=33	=33	=33	=33	=33	=33
[2.D	_	.	.	.	.	.
=33	=33	=33	=33	=33	=33	=33
.	.	1B-M	B-:maj (B- D F)	newline	43.852	voice
8D]	_	.	.	.	.	.
8r	.	.	.	.	.	.
4r	.	.	.	.	.	.
4BB-	(you've	.	.	.	.	.
=34	=34	=34	=34	=34	=34	=34
4AA	got	1FMm	F:7 (F A C E-)	.	.	voice
4GG	the	.	.	.	.	.
=34	=34	=34	=34	=34	=34	=34
4r	.	.	.	.	.	.
8FF	of	.	.	.	.	.
8FF	a	.	.	.	.	.
=35	=35	=35	=35	=35	=35	=35
8AA	wo-	1B-M	B-:maj (B- D F)	.	.	voice
8AA	-man	.	.	.	.	.
4C	in	.	.	.	.	.
2FF	ways)	.	.	.	.	.
=35	=35	=35	=35	=35	=35	=35
2BB-	love.	1B-M	B-:maj (B- D F)	.	.	voice
2BB-	(In	.	.	.	.	.
=36	=36	=36	=36	=36	=36	=36
*	*	*>B_bridge	*>B_bridge	*>B_bridge	*>B_bridge	*>B_bridge
2BB-	love...)	1E-M	E-:maj (E- G B-)	newline	49.127	voice
2r	.	.	.	.	.	.
=37	=37	=37	=37	=37	=37	=37
8G	Ma-	1E-M	E-:maj (E- G B-)	.	.	voice
[8G	-ny	.	.	.	.	.
4G]	_	.	.	.	.	.
4G	is	.	.	.	.	.
8A	the	.	.	.	.	.
[8B-	night	.	.	.	.	.
=38	=38	=38	=38	=38	=38	=38
2B-_	_	1B-M	B-:maj (B- D F)	.	.	voice
8B-]	_	.	.	.	.	.
[8G	I've	.	.	.	.	.
4G]	_	.	.	.	.	.
=39	=39	=39	=39	=39	=39	=39
4F	stayed	1B-M	B-:maj (B- D F)	.	.	voice
8F	a-	.	.	.	.	.
[8F	-wake	.	.	.	.	.
8F]	_	.	.	.	.	.
[8D	and	.	.	.	.	.
4D]	_	.	.	.	.	.
=40	=40	=40	=40	=40	=40	=40
[4F	cried	1E-M	E-:maj (E- G B-)	newline	54.369	voice
8F]	...	.	.	.	.	.
8r	.	.	.	.	.	.
2r	.	.	.	.	.	.
=41	=41	=41	=41	=41	=41	=41
4G	Now	1E-M	E-:maj (E- G B-)	.	.	voice
4G	you'll	.	.	.	.	.
8G	ne-	.	.	.	.	.
[8A	-ver	.	.	.	.	.
8A]	_	.	.	.	.	.
[8B-	know	.	.	.	.	.
=42	=42	=42	=42	=42	=42	=42
8B-]	_	1B-M	B-:maj (B- D F)	.	.	voice
[8B-	how	.	.	.	.	.
8B-]	_	.	.	.	.	.
[8A	much	.	.	.	.	.
8A]	_	.	.	.	.	.
[8G	you	.	.	.	.	.
8G]	_	.	.	.	.	.
[8F	hurt	.	.	.	.	.
=43	=43	=43	=43	=43	=43	=43
4F]	_	1FMm	F:7 (F A C E-)	.	.	voice
4F	my	.	.	.	.	.
4E-	foo-	.	.	.	.	.
4D	-lish	.	.	.	.	.
=44	=44	=44	=44	=44	=44	=44
2.C	pride...	1FMm	F:7 (F A C E-)	.	.	voice
4r	.	.	.	.	.	.
=45	=45	=45	=45	=45	=45	=45
*	*	*>A_verse	*>A_verse	*>A_verse	*>A_verse	*>A_verse
1r	.	1B-M	B-:maj (B- D F)	newline	60.982	voice
=46	=46	=46	=46	=46	=46	=46
4D	I	1B-M	B-:maj (B- D F)	.	.	voice
8D	re-	.	.	.	.	.
[8D	-call	.	.	.	.	.
4D]	_	.	.	.	.	.
4C	your	.	.	.	.	.
=47	=47	=47	=47	=47	=47	=47
8C	kis-	1FMm	F:7 (F A C E-)	.	.	voice
[8BB-	-ses,	.	.	.	.	.
4BB-]	_	.	.	.	.	.
4r	.	.	.	.	.	.
8D	the	.	.	.	.	.
[8E-	times	.	.	.	.	.
=48	=48	=48	=48	=48	=48	=48
4E-]	_	1FMm	F:7 (F A C E-)	.	.	voice
4E-	I	.	.	.	.	.
4E-	held	.	.	.	.	.
8D	you	.	.	.	.	.
[8C	tight,	.	.	.	.	.
=49	=49	=49	=49	=49	=49	=49
4C]	_	1FMm	F:7 (F A C E-)	newline	66.299	voice
4r	.	.	.	.	.	.
4r	.	.	.	.	.	.
4D	now	.	.	.	.	.
=50	=50	=50	=50	=50	=50	=50
8E-	when	1FMm	F:7 (F A C E-)	.	.	voice
[8E-	I	.	.	.	.	.
4E-]	_	.	.	.	.	.
4.E-	come	.	.	.	.	.
8D	to	.	.	.	.	.
=51	=51	=51	=51	=51	=51	=51
8D	see	1B-M	B-:maj (B- D F)	.	.	voice
[8C	you,	.	.	.	.	.
4C]	_	.	.	.	.	.
4r	.	.	.	.	.	.
4E-	you're	.	.	.	.	.
=52	=52	=52	=52	=52	=52	=52
8F	sit-	1B-M	B-:maj (B- D F)	.	.	voice
[8F	-ting	.	.	.	.	.
8F]	_	.	.	.	.	.
[8F	in	.	.	.	.	.
4F]	_	.	.	.	.	.
8E-	the	.	.	.	.	.
[8D	light	.	.	.	.	.
=53	=53	=53	=53	=53	=53	=53
4D]	_	1E-M	E-:maj (E- G B-)	newline	71.571	voice
4r	.	.	.	.	.	.
2r	.	.	.	.	.	.
=54	=54	=54	=54	=54	=54	=54
8G	Mis-	1E-M	E-:maj (E- G B-)	.	.	voice
[8G	-sing	.	.	.	.	.
8G]	_	.	.	.	.	.
[8G	all	.	.	.	.	.
4G]	_	.	.	.	.	.
8G	the	.	.	.	.	.
[8G	things	.	.	.	.	.
=55	=55	=55	=55	=55	=55	=55
4G]	_	1B-M	B-:maj (B- D F)	.	.	voice
8G	that	.	.	.	.	.
[8F	we	.	.	.	.	.
4F]	_	.	.	.	.	.
4E-	dreamed	.	.	.	.	.
=56	=56	=56	=56	=56	=56	=56
1F	of...	1B-M	B-:maj (B- D F)	.	.	voice
=57	=57	=57	=57	=57	=57	=57
4r	.	1B-M	B-:maj (B- D F)	newline	76.865	voice
4AA	you've	.	.	.	.	.
4BB-	got	.	.	.	.	.
8C	the	.	.	.	.	.
8D	ways	.	.	.	.	.
=58	=58	=58	=58	=58	=58	=58
[2.D	_	1FMm	F:7 (F A C E-)	.	.	voice
8D]	_	.	.	.	.	.
8r	.	.	.	.	.	.
=60	=60	=60	=60	=60	=60	=60
4r	.	1B-M	B-:maj (B- D F)	.	.	voice
4BB-	(you've	.	.	.	.	.
4AA	got	.	.	.	.	.
4GG	the	.	.	.	.	.
=59	=59	=59	=59	=59	=59	=59
4r	.	1B-M	B-:maj (B- D F)	.	.	voice
8FF	of	.	.	.	.	.
8FF	a	.	.	.	.	.
8AA	wo-	.	.	.	.	.
8AA	-man	.	.	.	.	.
4C	in	.	.	.	.	.
=62	=62	=62	=62	=62	=62	=62
*	*	*>A2_solo	*>A2_solo	*>A2_solo	*>A2_solo	*>A2_solo
2FF	ways)	1E-M	E-:maj (E- G B-)	newline	82.17	piano
=60	=60	=60	=60	=60	=60	=60
2BB-	love.	.	.	.	.	.
=63	=63	=63	=63	=63	=63	=63
2BB-	(In	1E-M	E-:maj (E- G B-)	.	.	piano
=61	=61	=61	=61	=61	=61	=61
2BB-	love...)	.	.	.	.	.
=64	=64	=64	=64	=64	=64	=64
2r	.	1B-M	B-:maj (B- D F)	.	.	piano
=62	=62	=62	=62	=62	=62	=62
1r	.	.	.	.	.	.
=65	=65	=65	=65	=65	=65	=65
.	.	1B-M	B-:maj (B- D F)	.	.	piano
=63	=63	=63	=63	=63	=63	=63
1r	.	.	.	.	.	.
=66	=66	=66	=66	=66	=66	=66
.	.	1B-M	B-:maj (B- D F)	newline	87.405	piano
=64	=64	=64	=64	=64	=64	=64
1r	.	.	.	.	.	.
=67	=67	=67	=67	=67	=67	=67
.	.	1FMm	F:7 (F A C E-)	.	.	piano
=65	=65	=65	=65	=65	=65	=65
1r	.	.	.	.	.	.
=68	=68	=68	=68	=68	=68	=68
.	.	1B-M	B-:maj (B- D F)	.	.	piano
=66	=66	=66	=66	=66	=66	=66
1r	.	.	.	.	.	.
=69	=69	=69	=69	=69	=69	=69
.	.	1B-M	B-:maj (B- D F)	.	.	piano
=67	=67	=67	=67	=67	=67	=67
1r	.	.	.	.	.	.
=70	=70	=70	=70	=70	=70	=70
*	*	*>B_bridge	*>B_bridge	*>B_bridge	*>B_bridge	*>B_bridge
.	.	1E-M	E-:maj (E- G B-)	newline	92.691	voice
=68	=68	=68	=68	=68	=68	=68
1r	.	.	.	.	.	.
=71	=71	=71	=71	=71	=71	=71
.	.	1E-M	E-:maj (E- G B-)	.	.	voice
=69	=69	=69	=69	=69	=69	=69
1r	.	.	.	.	.	.
=72	=72	=72	=72	=72	=72	=72
.	.	1B-M	B-:maj (B- D F)	.	.	voice
=70	=70	=70	=70	=70	=70	=70
1r	.	.	.	.	.	.
=73	=73	=73	=73	=73	=73	=73
.	.	1B-M	B-:maj (B- D F)	.	.	voice
=71	=71	=71	=71	=71	=71	=71
1r	.	.	.	.	.	.
=74	=74	=74	=74	=74	=74	=74
.	.	1E-M	E-:maj (E- G B-)	newline	98.038	voice
=72	=72	=72	=72	=72	=72	=72
1r	.	.	.	.	.	.
=75	=75	=75	=75	=75	=75	=75
.	.	1E-M	E-:maj (E- G B-)	.	.	voice
=73	=73	=73	=73	=73	=73	=73
1r	.	.	.	.	.	.
=76	=76	=76	=76	=76	=76	=76
.	.	1B-M	B-:maj (B- D F)	.	.	voice
=74	=74	=74	=74	=74	=74	=74
1r	.	.	.	.	.	.
=77	=77	=77	=77	=77	=77	=77
.	.	1FMm	F:7 (F A C E-)	.	.	voice
=75	=75	=75	=75	=75	=75	=75
1r	.	.	.	.	.	.
=78	=78	=78	=78	=78	=78	=78
.	.	1FMm	F:7 (F A C E-)	.	.	voice
=76	=76	=76	=76	=76	=76	=76
1r	.	.	.	.	.	.
=79	=79	=79	=79	=79	=79	=79
*	*	*>A_verse	*>A_verse	*>A_verse	*>A_verse	*>A_verse
.	.	1B-M	B-:maj (B- D F)	newline	104.647	voice
=77	=77	=77	=77	=77	=77	=77
1r	.	.	.	.	.	.
=80	=80	=80	=80	=80	=80	=80
.	.	1B-M	B-:maj (B- D F)	.	.	voice
=78	=78	=78	=78	=78	=78	=78
8G	Ma-	.	.	.	.	.
[8G	-ny	.	.	.	.	.
4G]	_	.	.	.	.	.
=81	=81	=81	=81	=81	=81	=81
4G	is	1FMm	F:7 (F A C E-)	.	.	voice
8A	the	.	.	.	.	.
[8B-	night	.	.	.	.	.
=79	=79	=79	=79	=79	=79	=79
2B-_	_	.	.	.	.	.
=82	=82	=82	=82	=82	=82	=82
8B-]	_	1FMm	F:7 (F A C E-)	.	.	voice
[8G	I've	.	.	.	.	.
4G]	_	.	.	.	.	.
=80	=80	=80	=80	=80	=80	=80
4F	stayed	.	.	.	.	.
8F	a-	.	.	.	.	.
[8F	-wake	.	.	.	.	.
=83	=83	=83	=83	=83	=83	=83
8F]	_	1FMm	F:7 (F A C E-)	newline	109.921	voice
8E-	and	.	.	.	.	.
4D	_	.	.	.	.	.
=81	=81	=81	=81	=81	=81	=81
4.F	cried	.	.	.	.	.
8r	.	.	.	.	.	.
=84	=84	=84	=84	=84	=84	=84
2r	.	1FMm	F:7 (F A C E-)	.	.	voice
=82	=82	=82	=82	=82	=82	=82
4G	Now	.	.	.	.	.
4G	you'll	.	.	.	.	.
=85	=85	=85	=85	=85	=85	=85
8G	ne-	1B-M	B-:maj (B- D F)	.	.	voice
[8A	-ver	.	.	.	.	.
8A]	_	.	.	.	.	.
[8B-	know	.	.	.	.	.
=83	=83	=83	=83	=83	=83	=83
8B-]	_	.	.	.	.	.
[8B-	how	.	.	.	.	.
8B-]	_	.	.	.	.	.
[8A	much	.	.	.	.	.
=86	=86	=86	=86	=86	=86	=86
8A]	_	1B-M	B-:maj (B- D F)	.	.	voice
[8G	you	.	.	.	.	.
8G]	_	.	.	.	.	.
[8F	hurt	.	.	.	.	.
=84	=84	=84	=84	=84	=84	=84
4F]	_	.	.	.	.	.
4F	my	.	.	.	.	.
=87	=87	=87	=87	=87	=87	=87
4E-	foo-	1E-M	E-:maj (E- G B-)	newline	115.285	voice
4D	-lish	.	.	.	.	.
=85	=85	=85	=85	=85	=85	=85
1C	pride...	.	.	.	.	.
=88	=88	=88	=88	=88	=88	=88
.	.	1E-M	E-:maj (E- G B-)	.	.	voice
=86	=86	=86	=86	=86	=86	=86
1r	.	.	.	.	.	.
=89	=89	=89	=89	=89	=89	=89
.	.	1B-M	B-:maj (B- D F)	.	.	voice
=87	=87	=87	=87	=87	=87	=87
4D	I	.	.	.	.	.
8D	re-	.	.	.	.	.
[8D	-call	.	.	.	.	.
=90	=90	=90	=90	=90	=90	=90
4D]	_	1B-M	B-:maj (B- D F)	.	.	voice
4C	your	.	.	.	.	.
=88	=88	=88	=88	=88	=88	=88
8C	kis-	.	.	.	.	.
[8BB-	-ses,	.	.	.	.	.
4BB-]	_	.	.	.	.	.
=91	=91	=91	=91	=91	=91	=91
4r	.	1B-M	B-:maj (B- D F)	newline	120.559	voice
8D	the	.	.	.	.	.
[8E-	times	.	.	.	.	.
=89	=89	=89	=89	=89	=89	=89
4E-]	_	.	.	.	.	.
4E-	I	.	.	.	.	.
=92	=92	=92	=92	=92	=92	=92
4E-	held	1FMm	F:7 (F A C E-)	.	.	voice
8D	you	.	.	.	.	.
[8C	tight,	.	.	.	.	.
=90	=90	=90	=90	=90	=90	=90
4C]	_	.	.	.	.	.
4r	.	.	.	.	.	.
=93	=93	=93	=93	=93	=93	=93
4r	.	1B-M	B-:maj (B- D F)	.	.	voice
4D	now	.	.	.	.	.
=91	=91	=91	=91	=91	=91	=91
8E-	when	.	.	.	.	.
[8E-	I	.	.	.	.	.
4E-]	_	.	.	.	.	.
=94	=94	=94	=94	=94	=94	=94
4.E-	come	1B-M	B-:maj (B- D F)	.	.	voice
8D	to	.	.	.	.	.
=92	=92	=92	=92	=92	=92	=92
8D	see	.	.	.	.	.
[8C	you,	.	.	.	.	.
4C]	_	.	.	.	.	.
=95	=95	=95	=95	=95	=95	=95
4r	.	1B-M	B-:maj (B- D F)	newline	125.864	voice
4E-	you're	.	.	.	.	.
=93	=93	=93	=93	=93	=93	=93
8F	sit-	.	.	.	.	.
[8F	-ting	.	.	.	.	.
8F]	_	.	.	.	.	.
[8F	in	.	.	.	.	.
=96	=96	=96	=96	=96	=96	=96
4F]	_	1FMm	F:7 (F A C E-)	.	.	voice
8E-	the	.	.	.	.	.
[8D	light	.	.	.	.	.
=94	=94	=94	=94	=94	=94	=94
4D]	_	.	.	.	.	.
4r	.	.	.	.	.	.
=97	=97	=97	=97	=97	=97	=97
2r	.	1B-M	B-:maj (B- D F)	.	.	voice
=95	=95	=95	=95	=95	=95	=95
8G	Mis-	.	.	.	.	.
[8G	-sing	.	.	.	.	.
8G]	_	.	.	.	.	.
[8G	all	.	.	.	.	.
=98	=98	=98	=98	=98	=98	=98
4G]	_	1B-M	B-:maj (B- D F)	.	.	voice
8G	the	.	.	.	.	.
[8G	things	.	.	.	.	.
=96	=96	=96	=96	=96	=96	=96
4G]	_	.	.	.	.	.
8G	that	.	.	.	.	.
[8F	we	.	.	.	.	.
4F]	_	1r;	r	.	133.909	r
4E-	dreamed	.	.	.	.	.
=97	=97	=97	=97	=97	=97	=97
1F	of...	.	.	.	.	.
.	.	1r;	r	.	136.725	r
=98	=98	=98	=98	=98	=98	=98
4r	.	.	.	.	.	.
4AA	You've	.	.	.	.	.
*	*	*	*	*	*-	*-	*-	*-	*-
4BB-	got
8C	the
8D	ways
=99	=99
[2.D	_
8D]	_
8r	.
4r	.
4BB-	(you've
4AA	got
4GG	the
=100	=100
4r	.
8FF	of
8FF	a
8AA	wo-
8AA	-man
4C	in
2FF	ways)
=101	=101
2BB-	love.
2BB-	(In
=102	=102
2BB-	love...)
2r	.
=103	=103
1D	_
4r	.
4BB-	(you've
4AA	got
4GG	the
=104	=104
4r	.
8FF	of
8FF	a
8AA	wo-
8AA	-man
4C	in
2FF	ways)
=105	=105
2BB-	love.
2BB- F B- d	(In
=106	=106
1BB-; F B- d	love...)
=107	=107
1r	.
*-	*-
!!!BillboardChartDate: 1958/09/01
!!!BillboardPeak: 24
!!!BillboardWeeksOnChart: 11
!!!COC: Johnny Cash
!!!ENC: Nathaniel Condit-Schultz
!!!EST: Awating manual error checking and editing.
!!!OTL: The Ways Of A Woman In Love
!!!RDF**chordsym: original McGill chord annotation + (implied pitch class set, with bass pitch in first position)
!!!RDF**harmony: **recip + pitch class of root + harmonic quality
!!!RDF**leadinstrument: original McGill primary instrumentation annotation
!!!RDF**phrase: newline = linebreak in original McGill transcription
!!!RDF**timestamp: McGill audio timestamp in seconds
!!!RDT: 2017/01/12/
!!!SampleActualRank: 58
!!!SampleID#: 0787
!!!SampleTargetRank: 58
